src/pos-icons/light-switch.svg

<svg height="24" viewBox="0 0 24 24" width="24" xmlns="http://www.w3.org/2000/svg"><path d="m7 1a2 2 0 0 0 -2 2v18a2 2 0 0 0 2 2h10a2 2 0 0 0 2-2v-18a2 2 0 0 0 -2-2zm0 2h10v18h-10zm2 3v12h6v-12zm1 1h4v4h-4zm0 6h4v4h-4z"/></svg>

<?xml version="1.0" encoding="UTF-8"?><!DOCTYPE svg PUBLIC "-//W3C//DTD SVG 1.1//EN" "http://www.w3.org/Graphics/SVG/1.1/DTD/svg11.dtd"><svg xmlns="http://www.w3.org/2000/svg" xmlns:xlink="http://www.w3.org/1999/xlink" version="1.1" id="mdi-light-switch" width="24" height="24" viewBox="0 0 24 24"><path d="M7,1A2,2 0 0,0 5,3V21A2,2 0 0,0 7,23H17A2,2 0 0,0 19,21V3A2,2 0 0,0 17,1H7M7,3H17V21H7V3M9,6V18H15V6H9M10,7H14V11H10V7M10,13H14V17H10V13Z" /></svg>
